resources/haticons/SVG/filter_9_plus.svg

<!-- Generated by IcoMoon.io -->
<svg version="1.1" xmlns="http://www.w3.org/2000/svg" width="24" height="24" viewBox="0 0 24 24">
<title>filter_9_plus</title>
<path d="M21 9v-6h-14.016v14.016h14.016v-6h-2.016v1.969h-1.969v-1.969h-2.016v-2.016h2.016v-2.016h1.969v2.016h2.016zM21 0.984q0.797 0 1.406 0.609t0.609 1.406v14.016q0 0.797-0.609 1.383t-1.406 0.586h-14.016q-0.797 0-1.383-0.586t-0.586-1.383v-14.016q0-0.797 0.586-1.406t1.383-0.609h14.016zM11.016 9h0.984v-0.984h-0.984v0.984zM14.016 12q0 0.844-0.586 1.43t-1.43 0.586h-3v-2.016h3v-0.984h-0.984q-0.844 0-1.43-0.586t-0.586-1.43v-0.984q0-0.844 0.586-1.43t1.43-0.586h0.984q0.844 0 1.43 0.586t0.586 1.43v3.984zM3 5.016v15.984h15.984v2.016h-15.984q-0.797 0-1.406-0.609t-0.609-1.406v-15.984h2.016z"></path>
</svg>

<svg xmlns="http://www.w3.org/2000/svg" width="24" height="24"><path d="M21 9V3H6.984v14.016H21v-6h-2.016v1.969h-1.969v-1.969h-2.016V9h2.016V6.984h1.969V9H21zm0-8.016q.797 0 1.406.609t.609 1.406v14.016q0 .797-.609 1.383T21 18.984H6.984q-.797 0-1.383-.586t-.586-1.383V2.999q0-.797.586-1.406T6.984.984H21zM11.016 9H12v-.984h-.984V9zm3 3q0 .844-.586 1.43t-1.43.586H9V12h3v-.984h-.984q-.844 0-1.43-.586T9 9v-.984q0-.844.586-1.43T11.016 6H12q.844 0 1.43.586t.586 1.43V12zM3 5.016V21h15.984v2.016H3q-.797 0-1.406-.609t-.609-1.406V5.017h2.016z"/></svg>
